**kern	**kern	**dynam
*part1	*part1	*part1
*staff2	*staff1	*
*I"Piano	*	*
*clefF4	*clefF4	*
*k[b-e-]	*k[b-e-]	*
=1	=1	=1
2.FFF 2.FF	4C 4F 4A-X	p
.	2C 2F 2A-	[
=	=	=
2.CCC 2.CC	4E- 4G 4c	p
.	2E- 2G 2c	[
=	=	=
2.DDD 2.DD	4D 4F#X 4An	p
.	[2D [2F# [2A	[
=	=	=
4DD	4D] 4F#] 4A]	.
4r	4r	.
*	*clefG2	*
!	!	!LO:DY:a
4D	8r	pp
.	8d 8dd	.
=	=	=
2BB-	8r	.
.	4.B- 4.b-	.
4GG	8r	.
.	8G 8g	.
*	*clefF4	*
=	=	=
2EE-	8r	.
.	4.E- 4.e-	.
4CC	8r	.
.	8C 8c	.
=	=	=
2.AAA 2.AA	4C#X 4En 4A	p
.	4C# 4E 4A	.
.	[4C# [4E [4A	.
=	=	=
2AAA 2AA	2C#] 2E] 2A]	[
4FF	4r	.
=	=	=
*-	*-	*-
!!!system-decoration: {(s1,s2)}
